!!!COM: Bach, Johann Sebastian
!!!CDT: 1685/3//-1750/7/28/
!!!OTL@@DE: Lobt Gott, ihr Christen, allzugleich
!!!AGN: 4-Part Chorale
!!!SCT: BH 054
!!!SCT: BWV 151
**harm	**root	**kern	**kern	**kern	**kern
!	!	!bass	!tenor	!alto	!soprno
*	*Iorgan	*Iorgan	*Iorgan	*Iorgan	*Iorgan
*	*	*clefF4	*clefF4	*clefG2	*clefG2
*k[b-e-]	*k[b-e-]	*k[b-e-]	*k[b-e-]	*k[b-e-]	*k[b-e-]
*B-:	*B-:	*B-:	*B-:	*B-:	*B-:
*M4/4	*M4/4	*M4/4	*M4/4	*M4/4	*M4/4
*met(c)	*met(c)	*met(c)	*met(c)	*met(c)	*met(c)
*MM60	*MM60	*MM60	*MM60	*MM60	*MM60
I	4GG	4B-	4d	4f	4b-
=1	=1	=1	=1	=1	=1
Vb	4DD	4A	4c	8f	4ff
.	.	.	.	8g	.
V7	4DD	4F	8f	4a	4ff
.	.	.	8e-	.	.
I	4GG	8B-	8d	4b-	4ff
.	.	8c	8e-	.	.
Ib	4GG	4d	4f	4b-	4ff
=2	=2	=2	=2	=2	=2
IV	4CC	4E-	8e-	4b-	4gg
.	.	.	8d	.	.
V7	4DD	4F	8c	4a	8ff
.	.	.	8f	.	8ee-
I;	4GG;	4B-;	4f;	4b-;	4dd;
Vb	4DD	4A	4f	4cc	4cc
=3	=3	=3	=3	=3	=3
vi	4EE	4G	4B-	4b-	8dd
.	.	.	.	.	8ee
V	4DD	4F	4c	4a	4ff
vib	4EE	4B-	4d	8g	4gg
.	.	.	.	8a	.
V7/V	4AA	4c	4e	4b-	4gg
=4	=4	=4	=4	=4	=4
V;	2DD;	2F;	2c	2a;	2ff;
r	4r	4r	4r	4r	4r
V7b	4DD	4A	8f	4cc	4ff
.	.	.	8e-	.	.
=5	=5	=5	=5	=5	=5
I	4GG	4B-	4d	4b-	4ff
V7c	4DD	4c	4e-	4a	4ff
Ib	4GG	4d	4f	4b-	4ff
vi	4EE	4G	4g	4b-	8dd
.	.	.	.	.	8ee-
!!linebreak: 2
=6	=6	=6	=6	=6	=6
Ib	4GG	4D	4f	4b-	4ff
iib	4AA	4E-	4g	8cc	8ee-
.	.	.	.	8b-	8dd
V;	4DD;	4F;	4c;	4a;	4cc;
iii	4BB	4D	4d	4a	4ff
=7	=7	=7	=7	=7	=7
IV7	8CC	8G	8d	8b-	4ee-
viio	8FF#	8A	8c	4cc	.
I	4GG	4B-	8d	.	4dd
.	.	.	8e-	[8b-	.
V	4DD	4F	4f	8b-]	4cc
.	.	.	.	8g	.
viio7/VI	4DD#	4F#	4e-	4a	4cc
=8	=8	=8	=8	=8	=8
vi	2EE	8G	4d	2b-	8b-
.	.	8A	.	.	8cc
.	.	8B-	4g	.	8dd
.	.	8c	.	.	8ee-
iii;	4BB;	4d;	4f;	4a;	4ff;
I	4GG	4B-	4d	4b-	4ff
=9	=9	=9	=9	=9	=9
IVb	4CC	4G	8e-	4b-	4ee-
.	.	.	8f	.	.
vi7d	4EE	8F	4g	4b-	8dd
.	.	8E-	.	.	8cc
Ic	4GG	4F	4f	4b-	4dd
V7	4DD	4F	8f	4a	4cc
.	.	.	8e-	.	.
=10	=10	=10	=10	=10	=10
I;	2.GG;	2.BB-;	2.d;	2.f;	2.b-;
==	==	==	==	==	==
*-	*-	*-	*-	*-	*-
!!chor2scor: -l 2 -s 0.6 -o %b.pmx
!!!YEC: Copyright 2001 by Craig Stuart Sapp
!!!license: GNU General Public License (http://www.gnu.org/copyleft/gpl.html)
!!!SMA: 371 Bach Chorales, edited by Ludwig Erk, C.F. Peters
!!!PDT: 1850, 1865
!!!ONB: Harmony and Root analysis done manually by Craig Sapp
